app/img/user-icon.svg

<svg width="19" height="21" viewBox="0 0 19 21" fill="none" xmlns="http://www.w3.org/2000/svg">
<path fill-rule="evenodd" clip-rule="evenodd" d="M4.47277 5.43636C4.47277 8.33636 6.64549 10.6909 9.31822 10.6909C11.9909 10.6909 14.1637 8.33636 14.1637 5.43636C14.1637 2.62727 12.0819 0.5 9.31822 0.5C6.55459 0.5 4.47277 2.62727 4.47277 5.43636ZM5.9364 5.44545C5.9364 3.42727 7.35459 1.96364 9.31822 1.96364C11.2455 1.96364 12.7 3.45455 12.7 5.44545C12.7 7.54545 11.1819 9.24545 9.31822 9.24545C7.45459 9.24545 5.9364 7.53636 5.9364 5.44545ZM0 19.7727C0 20.1727 0.327273 20.5 0.727273 20.5H17.9091C18.3091 20.5 18.6364 20.1727 18.6364 19.7727C18.6364 14.6091 15.3273 11.7636 9.31818 11.7636C3.30909 11.7636 0 14.6091 0 19.7727ZM17.1545 19.0364H1.49091C1.77273 15.1818 4.4 13.2182 9.31818 13.2182C14.2364 13.2182 16.8636 15.1727 17.1545 19.0364Z" fill="#2C2C2C"/>
</svg>

<svg width="19" height="21" fill="none" xmlns="http://www.w3.org/2000/svg"><path fill-rule="evenodd" clip-rule="evenodd" d="M4.473 5.436c0 2.9 2.172 5.255 4.845 5.255 2.673 0 4.846-2.355 4.846-5.255C14.164 2.627 12.082.5 9.318.5 6.555.5 4.473 2.627 4.473 5.436zm1.463.01c0-2.019 1.419-3.482 3.382-3.482 1.928 0 3.382 1.49 3.382 3.481 0 2.1-1.518 3.8-3.382 3.8-1.863 0-3.382-1.709-3.382-3.8zM0 19.772c0 .4.327.727.727.727H17.91a.73.73 0 00.727-.727c0-5.164-3.309-8.01-9.318-8.01C3.31 11.764 0 14.61 0 19.774zm17.154-.737H1.491c.282-3.854 2.909-5.818 7.827-5.818s7.546 1.955 7.836 5.818z" fill="#2C2C2C"/></svg>
